assets/icons/volume-low-24.svg

<svg width="24" height="24" viewBox="0 0 24 24" fill="none" xmlns="http://www.w3.org/2000/svg">
<path fill-rule="evenodd" clip-rule="evenodd" d="M16 5.98853C16 4.37396 14.1613 3.4348 12.8375 4.37324L8.20108 7.6602C7.86188 7.90067 7.45545 8.02994 7.0386 8.02994H5C3.34315 8.02994 2 9.36303 2 11.0075L2 12.9925C2 14.637 3.34315 15.9701 5 15.9701L7.0386 15.9701C7.45545 15.9701 7.86188 16.0993 8.20108 16.3398L12.8375 19.6268C14.1613 20.5652 16 19.626 16 18.0115L16 5.98853ZM9.36356 9.27548L14 5.98853L14 18.0115L9.36356 14.7245C8.68515 14.2436 7.8723 13.985 7.0386 13.985L5 13.985C4.44771 13.985 4 13.5407 4 12.9925V11.0075C4 10.4593 4.44771 10.015 5 10.015H7.0386C7.8723 10.015 8.68515 9.75643 9.36356 9.27548Z" fill="#F2F2F2"/>
<path d="M18.5376 7.15697C18.0001 7.03095 17.4615 7.36126 17.3345 7.89473C17.2076 8.4282 17.5404 8.96282 18.0778 9.08883C19.1804 9.34732 20 10.3317 20 11.5037C20 12.6758 19.1804 13.6602 18.0778 13.9187C17.5404 14.0447 17.2076 14.5793 17.3345 15.1128C17.4615 15.6462 18.0001 15.9765 18.5376 15.8505C20.5223 15.3852 22 13.617 22 11.5037C22 9.39052 20.5223 7.62227 18.5376 7.15697Z" fill="#F2F2F2"/>
</svg>

<svg xmlns="http://www.w3.org/2000/svg" width="24" height="24" viewBox="0 0 24 24"><path fill-rule="evenodd" d="M16 5.989c0-1.615-1.839-2.554-3.162-1.616L8.2 7.66c-.34.24-.746.37-1.162.37H5c-1.657 0-3 1.333-3 2.978v1.985c0 1.644 1.343 2.977 3 2.977h2.039c.416 0 .823.13 1.162.37l4.636 3.287c1.324.938 3.163-.001 3.163-1.615V5.989zM9.364 9.275L14 5.99v12.023l-4.636-3.287a4.021 4.021 0 00-2.325-.74H5c-.552 0-1-.444-1-.992v-1.986a.996.996 0 011-.992h2.039a4.02 4.02 0 002.325-.74z"/><path d="M18.538 7.157a.992.992 0 10-.46 1.932A2.486 2.486 0 0120 11.504c0 1.172-.82 2.156-1.922 2.415a.992.992 0 00-.744 1.194 1 1 0 001.204.738C20.522 15.385 22 13.617 22 11.503c0-2.113-1.478-3.882-3.462-4.347z"/></svg>
